**kern	**kern	**dynam
*part1	*part1	*part1
*staff2	*staff1	*
*I"Piano	*	*
*clefF4	*clefG2	*
*k[b-e-a-d-g-]	*k[b-e-a-d-g-]	*
=1	=1	=1
8r	8r	.
8AA-L 8G-	8cnL 8dn	.
8AA-J 8G-	8cJ 8e-	.
8r	8r	.
8AA-L 8B-	8cL 8g-	.
8AA-J 8A-	8cJ 8f	.
=	=	=
((8DD-L	4r	mp
8D-J)	.	.
!	!LO:TX:b:i:t=dim.	!
8A-	(8d- 8f	.
8B--L	8d-L 8g-	.
8B--	8d- 8g-	.
8A-J	8d-J 8f	.
=	=	=
*	*^	*
8D-L 8G-	8d-L 8b--	4.ryy	.
8D- 8G-	8d- 8b--	.	.
8D-J 8F	8d-J 8a-	.	.
4.D-) 4.B--	4cc	4.e- 4.g-	.
.	8dd-)	.	.
*	*v	*v	*
=	=	=
((8DD-L	4r	.
8D-J)	.	.
8A- 8d-	(8f 8dd-	.
8B--L 8d-	8g-L 8dd-	.
8B-- 8d-	8g- 8dd-	.
8A-J 8d-	8fJ 8dd-	.
=	=	=
*	*^	*
8G-L 8d-	8b--L 8dd-	4.ryy	.
8G- 8d-	8b-- 8dd-	.	.
8FJ 8d-	8a-J 8dd-	.	.
4.D- 4.c 4.e-	4gg-	4.b--	.
.	8ff	.	.
*	*v	*v	*
=	=	=
4D-:) 4d-: 4f:	4a-) 4ff	pp
8r	8r	.
4D- 4A-	4f 4dd-	.
8r	8r	.
=	=	=
2.D-; 2.A-	2.f; 2.dd-	.
==	==	==
*-	*-	*-
!!!system-decoration: {(s1,s2)}
